X:1
T:Title
%%score { ( 1 3 ) | ( 2 4 ) }
L:1/8
Q:1/4=100
M:4/4
K:Ab
V:1 treble nm="Grand Piano"
V:3 treble 
V:2 bass 
V:4 bass 
V:1
 [CE][CA][CA][DB] c2 c[Fd] | [Ec]AGB E2 _G2 | [FA][FA][EG][DF] [CE]2 [CA]2 | z4 B4 | %4
w: Henry~W.~Miller * * * * * *||||
 [CE][CA][CA][DB] [Ec]2 [Ec][Ec] | ec[EB][EA] [DF]4 | [Fd]2 [Fc][FB] ec z A | c c2 B [CA]4 | %8
w: ||||
[M:6/4] z6 c6 | z6 A6 | E2 G2 B2 d4 [Gd]2 | d2 c2 _c2 =c6 | %12
w: ||||
 [CE]2 [CA]2 [DB]2 [Ec]2 [=D_c]2 [E=c]2 | e2 =d2 e2 [Af]6 | %14
w: ||
[M:13/8] [FA]2 [EA]2 [EGB]2 [EAc]2 [Ae]3 [Fd]2 |[M:6/4] c2 c2 B2 .[CEA]6 |] %16
w: ||
V:2
 [A,,A,][A,,A,][A,,A,][A,,A,] [A,E]2 [A,E][D,A,] | [E,A,]2 [E,D]2 z4 | %2
 [D,D][D,D][D,D][D,A,] [A,,A,]2 [A,,A,]2 | z4 E2 z2 | %4
 [A,,A,][A,,A,][A,,A,][A,,A,] [A,,A,]2 [A,,A,][A,,A,] | .[A,C]2 z2 z4 | %6
 [B,,B,]2 [C,=A,][D,B,] [E,CE][E,A,E] z [F,A,=D] | [E,A,E] [E,A,E]2 [E,G,D] [A,,A,]4 | %8
[M:6/4][K:treble] [A,CA]2 [A,_CF]2[K:bass] [A,=CE]2 .[A,E]6 | %9
 [A,,A,]2 [A,,A,]2 [A,,A,]2 [A,,A,]2 [B,,E,]2 [C,A,]2 | %10
 [E,D]2- [E,-B,D-]2 [E,G,D]2 [E,G,E]4 [E,B,]2 | [A,F]2 [A,E]2[K:bass] [A,=D]2 [A,E]6 | %12
 [A,,A,]2 [A,,A,]2 [A,,A,]2 [A,,A,]2 [A,,A,]2 [A,,A,]2 | [A,CA]2 [A,_CA]2 [A,=CA]2[K:bass] [D,D]6 | %14
[M:13/8] [D,D]2 C,2 E,2 A,2 [C,A,]3 [D,A,]2 |[M:6/4] [E,A,E]2 [E,A,E]2 [E,DE]2 .A,,6 |] %16
V:3
 x8 | z4 [A,A]4 | x8 | [=Dc]2 [DB][DA] z2 _D2 | x8 | x8 | x8 | x8 |[M:6/4] e2 =d2 e2 z2 A2 F2 | %9
 [Ec]2 [=D_c]2 [E=c]2 C2 _D2 E2 | x12 | x12 | x12 | x12 |[M:13/8] x13 |[M:6/4] x12 |] %16
V:4
 x8 | z CB,G, A,,2 C,2 | x8 | [B,,A,]2 [B,,A,][B,,B,] [E,G,]4 | x8 | %5
 [A,,E]-[A,,A,E][B,,G,][C,A,] [D,A,]4 | x8 | x8 |[M:6/4][K:treble] x4[K:bass] x8 | x12 | .G,6 z6 | %11
 x4[K:bass] x8 | x12 | x6[K:bass] x6 |[M:13/8] x13 |[M:6/4] x12 |] %16

